www/static/img/overview/pill.svg

<svg fill="none" height="24" viewBox="0 0 120 24" width="120" xmlns="http://www.w3.org/2000/svg"><rect fill="#005a7a" height="24" rx="12" width="120"/><path d="m21.5812 6.19812c-.449-.34131-1.075-.23073-1.396.24775l-5.1679 7.69493-3.4889-2.3083c-.47-.3105-1.086-.1585-1.378.3402-.29099.4987-.147 1.1547.322 1.4652l5.0819 3.3621 6.2589-9.31753c.322-.47848.217-1.14303-.232-1.48435z" fill="#fff"/></svg>

<svg width="120" height="24" viewBox="0 0 120 24" fill="none" xmlns="http://www.w3.org/2000/svg">
<rect width="120" height="24" rx="12" fill="#005A7A"/>
<path d="M21.5812 6.19812C21.1322 5.85681 20.5062 5.96739 20.1852 6.44587L15.0173 14.1408L11.5284 11.8325C11.0584 11.522 10.4424 11.674 10.1504 12.1727C9.85941 12.6714 10.0034 13.3274 10.4724 13.6379L15.5543 17L21.8132 7.68247C22.1352 7.20399 22.0302 6.53944 21.5812 6.19812Z" fill="white"/>
</svg>
